addons/input_prompts/key_prompt/icon.svg

<svg height="16" viewBox="0 0 16 16" width="16" xmlns="http://www.w3.org/2000/svg"><path d="m4.55 5a.85.85 0 0 0 -.85.85v7.65a.85.85 0 0 0 .85.85h6.8a.85.85 0 0 0 .85-.85v-7.65a.85.85 0 0 0 -.85-.85zm.65 1.503h1.75v2.2l2-2.2h2.1l-2.884 3.172 2.884 3.172h-2.1l-2-2.2v2.2h-1.75z" fill="#90ef99"/><path d="m2 6.36v7.65a1.7 1.7 0 0 0 1.7 1.7h8.5a1.7 1.7 0 0 0 1.7-1.7v-7.65h-.85v7.65a.85.85 0 0 1 -.85.85h-8.5a.85.85 0 0 1 -.85-.85v-7.65z" fill="#90ef99"/><path d="m10.5 3.6.75-1.5m-5.75 1.5-.75-1.5m3.25 1.1v-1.7" fill="none" stroke="#8fef99" stroke-linecap="round" stroke-width="1.25"/></svg>

<?xml version="1.0" encoding="UTF-8" standalone="no"?>
<svg
   height="16"
   viewBox="0 0 16 16"
   width="16"
   version="1.1"
   id="svg3"
   sodipodi:docname="InputEventKey.svg"
   inkscape:version="1.3 (0e150ed6c4, 2023-07-21)"
   xmlns:inkscape="http://www.inkscape.org/namespaces/inkscape"
   xmlns:sodipodi="http://sodipodi.sourceforge.net/DTD/sodipodi-0.dtd"
   xmlns="http://www.w3.org/2000/svg"
   xmlns:svg="http://www.w3.org/2000/svg">
  <defs
     id="defs3" />
  <sodipodi:namedview
     id="namedview3"
     pagecolor="#ffffff"
     bordercolor="#000000"
     borderopacity="0.25"
     inkscape:showpageshadow="2"
     inkscape:pageopacity="0.0"
     inkscape:pagecheckerboard="0"
     inkscape:deskcolor="#d1d1d1"
     inkscape:zoom="50.125"
     inkscape:cx="8"
     inkscape:cy="8"
     inkscape:window-width="1920"
     inkscape:window-height="997"
     inkscape:window-x="0"
     inkscape:window-y="0"
     inkscape:window-maximized="1"
     inkscape:current-layer="svg3" />
  <path
     d="M4.55 5a.85.85 0 0 0-.85.85v7.65a.85.85 0 0 0 .85.85h6.8a.85.85 0 0 0 .85-.85V5.85a.85.85 0 0 0-.85-.85zm.65 1.503h1.75v2.2l2-2.2h2.1L8.166 9.675l2.884 3.172h-2.1l-2-2.2v2.2H5.2z"
     fill="#69c4d4"
     id="path1"
     style="fill:#90ef99;fill-opacity:1" />
  <path
     d="M2 6.36v7.65a1.7 1.7 0 0 0 1.7 1.7h8.5a1.7 1.7 0 0 0 1.7-1.7V6.36h-.85v7.65a.85.85 0 0 1-.85.85H3.7a.85.85 0 0 1-.85-.85V6.36z"
     fill="#e0e0e0"
     id="path2"
     style="fill:#90ef99;fill-opacity:1" />
  <path
     d="m10.5 3.6.75-1.5M5.5 3.6l-.75-1.5M8 3.2V1.5"
     stroke-width="1.25"
     stroke-linecap="round"
     stroke="#69c4d4"
     fill="none"
     id="path3"
     style="stroke:#8fef99;stroke-opacity:1" />
</svg>
